Pop/16x16/places/distributor-logo-manjaro.svg

<svg enable-background="new" version="1.0" viewBox="0 0 16 16" xmlns="http://www.w3.org/2000/svg"><defs><filter id="a" x="-.027" y="-.022" width="1.053" height="1.044" color-interpolation-filters="sRGB"><feGaussianBlur stdDeviation="4.08"/></filter></defs><g color="#000"><path d="M272-16h112v-64h128v-112H272zm256-176v448h112v-448zM400-64v320h112V-64zM272 0v256h112V0z" enable-background="new" filter="url(#a)" opacity=".1" transform="translate(-16 -268)"/><path d="M272-16h112v-64h128v-112H272zm256-176v448h112v-448zM400-64v320h112V-64zM272 0v256h112V0z" enable-background="new" filter="url(#a)" opacity=".2" transform="translate(-16 -268)"/><path d="M2 8h3V4h4V1H2zm8-7v14h3V1zM6 5v10h3V5zM2 9v6h3V9z" enable-background="new" fill="#00e676"/></g></svg>

<?xml version="1.0" encoding="UTF-8" standalone="no"?>
<!-- Created with Inkscape (http://www.inkscape.org/) -->

<svg
   inkscape:export-ydpi="90.000000"
   inkscape:export-xdpi="90.000000"
   width="16"
   height="16"
   id="svg11300"
   sodipodi:version="0.32"
   inkscape:version="0.91 r"
   sodipodi:docname="distributor-logo-manjaro.svg"
   inkscape:output_extension="org.inkscape.output.svg.inkscape"
   version="1.0"
   style="display:inline;enable-background:new"
   inkscape:export-filename="/home/sam/Pop-template.png"
   xmlns:inkscape="http://www.inkscape.org/namespaces/inkscape"
   xmlns:sodipodi="http://sodipodi.sourceforge.net/DTD/sodipodi-0.dtd"
   xmlns="http://www.w3.org/2000/svg"
   xmlns:svg="http://www.w3.org/2000/svg"
   xmlns:rdf="http://www.w3.org/1999/02/22-rdf-syntax-ns#"
   xmlns:cc="http://creativecommons.org/ns#"
   xmlns:dc="http://purl.org/dc/elements/1.1/">
  <title
     id="title3004">Pop Icon Theme Template</title>
  <sodipodi:namedview
     stroke="#ef2929"
     fill="#f57900"
     id="base"
     pagecolor="#6b6b6b"
     bordercolor="#000000"
     borderopacity="0.25490196"
     inkscape:pageopacity="0"
     inkscape:pageshadow="2"
     inkscape:zoom="1"
     inkscape:cx="141.04336"
     inkscape:cy="265.02458"
     inkscape:current-layer="layer6"
     showgrid="false"
     inkscape:grid-bbox="true"
     inkscape:document-units="px"
     inkscape:showpageshadow="false"
     inkscape:window-width="1920"
     inkscape:window-height="1023"
     inkscape:window-x="0"
     inkscape:window-y="27"
     width="400px"
     height="300px"
     inkscape:snap-nodes="true"
     inkscape:snap-bbox="true"
     gridtolerance="10000"
     inkscape:object-nodes="true"
     inkscape:snap-grids="true"
     showguides="true"
     inkscape:guide-bbox="true"
     inkscape:window-maximized="1"
     inkscape:bbox-paths="true"
     inkscape:snap-bbox-midpoints="true"
     inkscape:snap-global="true"
     inkscape:object-paths="true"
     inkscape:snap-intersection-paths="true"
     inkscape:snap-smooth-nodes="true"
     inkscape:pagecheckerboard="0">
    <inkscape:grid
       spacingy="1px"
       spacingx="1px"
       id="grid5883"
       type="xygrid"
       enabled="true"
       visible="true"
       empspacing="4"
       snapvisiblegridlinesonly="true" />
    <inkscape:grid
       type="xygrid"
       id="grid11592"
       empspacing="2"
       visible="true"
       enabled="false"
       spacingx="0.5px"
       spacingy="0.5px"
       color="#ff0000"
       opacity="0.1254902"
       empcolor="#ff0000"
       empopacity="0.25098039"
       snapvisiblegridlinesonly="true" />
  </sodipodi:namedview>
  <defs
     id="defs3">
    <filter
       inkscape:collect="always"
       style="color-interpolation-filters:sRGB"
       id="filter4192"
       x="-0.026608695"
       width="1.0532174"
       y="-0.021857142"
       height="1.0437143">
      <feGaussianBlur
         inkscape:collect="always"
         stdDeviation="4.08"
         id="feGaussianBlur4194" />
    </filter>
  </defs>
  <metadata
     id="metadata4">
    <rdf:RDF>
      <cc:Work
         rdf:about="">
        <dc:format>image/svg+xml</dc:format>
        <dc:type
           rdf:resource="http://purl.org/dc/dcmitype/StillImage" />
        <dc:creator>
          <cc:Agent>
            <dc:title>Sam Hewitt</dc:title>
          </cc:Agent>
        </dc:creator>
        <dc:source />
        <cc:license
           rdf:resource="http://creativecommons.org/licenses/by-sa/3.0/" />
        <dc:title>Pop Icon Theme Template</dc:title>
        <dc:subject>
          <rdf:Bag />
        </dc:subject>
        <dc:date />
        <dc:rights>
          <cc:Agent>
            <dc:title />
          </cc:Agent>
        </dc:rights>
        <dc:publisher>
          <cc:Agent>
            <dc:title />
          </cc:Agent>
        </dc:publisher>
        <dc:identifier />
        <dc:relation />
        <dc:language />
        <dc:coverage />
        <dc:description />
        <dc:contributor>
          <cc:Agent>
            <dc:title />
          </cc:Agent>
        </dc:contributor>
      </cc:Work>
      <cc:Work
         rdf:about="">
        <dc:format>image/svg+xml</dc:format>
        <dc:type
           rdf:resource="http://purl.org/dc/dcmitype/StillImage" />
      </cc:Work>
      <cc:License
         rdf:about="http://creativecommons.org/licenses/by-sa/3.0/">
        <cc:permits
           rdf:resource="http://creativecommons.org/ns#Reproduction" />
        <cc:permits
           rdf:resource="http://creativecommons.org/ns#Distribution" />
        <cc:requires
           rdf:resource="http://creativecommons.org/ns#Notice" />
        <cc:requires
           rdf:resource="http://creativecommons.org/ns#Attribution" />
        <cc:permits
           rdf:resource="http://creativecommons.org/ns#DerivativeWorks" />
        <cc:requires
           rdf:resource="http://creativecommons.org/ns#ShareAlike" />
      </cc:License>
    </rdf:RDF>
  </metadata>
  <g
     style="display:inline"
     inkscape:groupmode="layer"
     inkscape:label="Icon"
     id="layer1"
     transform="translate(-16,-268)">
    <g
       style="display:none"
       inkscape:label="Baseplate"
       id="layer7"
       inkscape:groupmode="layer">
      <text
         y="337.74512"
         xml:space="preserve"
         x="15.006836"
         style="font-style:normal;font-variant:normal;font-weight:normal;font-stretch:normal;line-height:0%;font-family:'DejaVu Sans';-inkscape-font-specification:'DejaVu Sans';display:inline;fill:#000000;fill-opacity:1;stroke:none;enable-background:new"
         inkscape:label="context"
         id="context"><tspan
           style="font-style:normal;font-variant:normal;font-weight:normal;font-stretch:normal;font-size:18px;line-height:1.25;font-family:'DejaVu Sans';-inkscape-font-specification:'DejaVu Sans'"
           y="337.74512"
           x="15.006836"
           sodipodi:role="line"
           id="tspan3933">places</tspan></text>
      <text
         y="337.74512"
         xml:space="preserve"
         x="142.48828"
         style="font-style:normal;font-variant:normal;font-weight:bold;font-stretch:normal;line-height:0%;font-family:'DejaVu Sans';-inkscape-font-specification:'DejaVu Sans Bold';text-align:start;writing-mode:lr-tb;text-anchor:start;display:inline;fill:#000000;fill-opacity:1;stroke:none;enable-background:new"
         inkscape:label="icon-name"
         id="icon-name"><tspan
           style="font-style:normal;font-variant:normal;font-weight:bold;font-stretch:normal;font-size:18px;line-height:1.25;font-family:'DejaVu Sans';-inkscape-font-specification:'DejaVu Sans Bold'"
           y="337.74512"
           x="142.48828"
           sodipodi:role="line"
           id="tspan3937">distributor-logo-manjaro</tspan></text>
      <rect
         style="display:inline;overflow:visible;visibility:visible;fill:#d3d7cf;fill-opacity:1;fill-rule:nonzero;stroke:none;stroke-width:2;marker:none;enable-background:accumulate"
         id="rect16x16"
         width="16"
         height="16"
         x="-32"
         y="268"
         inkscape:label="16x16"
         transform="scale(-1,1)" />
      <rect
         style="display:inline;overflow:visible;visibility:visible;fill:#d3d7cf;fill-opacity:1;fill-rule:nonzero;stroke:none;stroke-width:2;marker:none;enable-background:accumulate"
         id="rect24x24"
         width="24"
         height="24"
         x="-76"
         y="260"
         inkscape:label="24x24"
         transform="scale(-1,1)" />
      <rect
         style="display:inline;overflow:visible;visibility:visible;fill:#d3d7cf;fill-opacity:1;fill-rule:nonzero;stroke:none;stroke-width:2;marker:none;enable-background:accumulate"
         id="rect32x32"
         width="32"
         height="32"
         x="-128"
         y="252"
         inkscape:label="32x32"
         transform="scale(-1,1)" />
      <rect
         inkscape:label="48x48"
         y="236"
         x="-192"
         height="48"
         width="48"
         id="rect48x48"
         style="display:inline;overflow:visible;visibility:visible;fill:#d3d7cf;fill-opacity:1;fill-rule:nonzero;stroke:none;stroke-width:2;marker:none;enable-background:accumulate"
         transform="scale(-1,1)" />
      <rect
         style="display:inline;overflow:visible;visibility:visible;fill:#d3d7cf;fill-opacity:1;fill-rule:nonzero;stroke:none;stroke-width:2;marker:none;enable-background:accumulate"
         id="rect3951"
         width="512"
         height="512"
         x="-720"
         y="-228"
         inkscape:label="48x48"
         transform="scale(-1,1)" />
    </g>
    <g
       inkscape:groupmode="layer"
       id="layer6"
       inkscape:label="Symbols"
       style="display:inline">
      <path
         sodipodi:nodetypes="cccccccccccccccccccccc"
         inkscape:connector-curvature="0"
         style="color:#000000;display:inline;overflow:visible;visibility:visible;opacity:0.1;fill:#000000;fill-opacity:1;fill-rule:nonzero;stroke:none;marker:none;filter:url(#filter4192);enable-background:new"
         d="M 272,-16 H 384 V -80 H 512 V -192 H 272 Z M 528,-192 V 256 H 640 V -192 Z M 400,-64 V 256 H 512 V -64 Z M 272,0 V 256 H 384 V 0 Z"
         id="path4196" />
      <path
         id="path4190"
         d="M 272,-16 H 384 V -80 H 512 V -192 H 272 Z M 528,-192 V 256 H 640 V -192 Z M 400,-64 V 256 H 512 V -64 Z M 272,0 V 256 H 384 V 0 Z"
         style="color:#000000;display:inline;overflow:visible;visibility:visible;opacity:0.2;fill:#000000;fill-opacity:1;fill-rule:nonzero;stroke:none;marker:none;filter:url(#filter4192);enable-background:new"
         inkscape:connector-curvature="0"
         sodipodi:nodetypes="cccccccccccccccccccccc" />
      <path
         sodipodi:nodetypes="cccccccccccccccccccccc"
         inkscape:connector-curvature="0"
         style="color:#000000;display:inline;overflow:visible;visibility:visible;opacity:0.2;fill:#000000;fill-opacity:1;fill-rule:nonzero;stroke:none;marker:none;enable-background:new"
         d="M 272,-18 H 384 V -82 H 512 V -194 H 272 Z M 528,-194 V 254 H 640 V -194 Z M 400,-66 V 254 H 512 V -66 Z M 272,-2 V 254 H 384 V -2 Z"
         id="path4188" />
      <path
         id="path4174"
         d="m 100,266 h 7 v -4 h 8 v -7 h -15 z m 16,-11 v 28 h 7 v -28 z m -8,8 v 20 h 7 v -20 z m -8,4 v 16 h 7 v -16 z"
         style="color:#000000;display:inline;overflow:visible;visibility:visible;opacity:0.2;fill:#000000;fill-opacity:1;fill-rule:nonzero;stroke:none;marker:none;enable-background:new"
         inkscape:connector-curvature="0"
         sodipodi:nodetypes="cccccccccccccccccccccc" />
      <path
         sodipodi:nodetypes="cccccccccccccccccccccc"
         inkscape:connector-curvature="0"
         style="color:#000000;display:inline;overflow:visible;visibility:visible;opacity:0.2;fill:#000000;fill-opacity:1;fill-rule:nonzero;stroke:none;marker:none;enable-background:new"
         d="m 56,272 h 5 v -4 h 6 v -5 H 56 Z m 12,-9 v 20 h 5 v -20 z m -6,6 v 14 h 5 v -14 z m -6,4 v 10 h 5 v -10 z"
         id="path4176" />
      <path
         id="path4178"
         d="m 150,258 h 10 v -8 h 12 v -10 h -22 z m 24,-18 v 42 h 10 v -42 z m -12,12 v 30 h 10 v -30 z m -12,8 v 22 h 10 v -22 z"
         style="color:#000000;display:inline;overflow:visible;visibility:visible;opacity:0.2;fill:#000000;fill-opacity:1;fill-rule:nonzero;stroke:none;marker:none;enable-background:new"
         inkscape:connector-curvature="0"
         sodipodi:nodetypes="cccccccccccccccccccccc" />
      <path
         id="path3897"
         d="M 272,-20 H 384 V -84 H 512 V -196 H 272 Z M 528,-196 V 252 H 640 V -196 Z M 400,-68 V 252 H 512 V -68 Z M 272,-4 V 252 H 384 V -4 Z"
         style="color:#000000;display:inline;overflow:visible;visibility:visible;fill:#00e676;fill-opacity:1;fill-rule:nonzero;stroke:none;marker:none;enable-background:new"
         inkscape:connector-curvature="0"
         sodipodi:nodetypes="cccccccccccccccccccccc" />
      <path
         sodipodi:nodetypes="cccccccccccccccccccccc"
         inkscape:connector-curvature="0"
         style="color:#000000;display:inline;overflow:visible;visibility:visible;fill:#00e676;fill-opacity:1;fill-rule:nonzero;stroke:none;marker:none;enable-background:new"
         d="m 100,265 h 7 v -4 h 8 v -7 h -15 z m 16,-11 v 28 h 7 v -28 z m -8,8 v 20 h 7 v -20 z m -8,4 v 16 h 7 v -16 z"
         id="path4154" />
      <path
         id="path4156"
         d="m 56,271 h 5 v -4 h 6 v -5 H 56 Z m 12,-9 v 20 h 5 v -20 z m -6,6 v 14 h 5 v -14 z m -6,4 v 10 h 5 v -10 z"
         style="color:#000000;display:inline;overflow:visible;visibility:visible;fill:#00e676;fill-opacity:1;fill-rule:nonzero;stroke:none;marker:none;enable-background:new"
         inkscape:connector-curvature="0"
         sodipodi:nodetypes="cccccccccccccccccccccc" />
      <path
         sodipodi:nodetypes="cccccccccccccccccccccc"
         inkscape:connector-curvature="0"
         style="color:#000000;display:inline;overflow:visible;visibility:visible;fill:#00e676;fill-opacity:1;fill-rule:nonzero;stroke:none;marker:none;enable-background:new"
         d="m 18,276 h 3 v -4 h 4 v -3 h -7 z m 8,-7 v 14 h 3 v -14 z m -4,4 v 10 h 3 v -10 z m -4,4 v 6 h 3 v -6 z"
         id="path4158" />
      <path
         sodipodi:nodetypes="cccccccccccccccccccccc"
         inkscape:connector-curvature="0"
         style="color:#000000;display:inline;overflow:visible;visibility:visible;fill:#00e676;fill-opacity:1;fill-rule:nonzero;stroke:none;marker:none;enable-background:new"
         d="m 150,257 h 10 v -8 h 12 v -10 h -22 z m 24,-18 v 42 h 10 v -42 z m -12,12 v 30 h 10 v -30 z m -12,8 v 22 h 10 v -22 z"
         id="path4160" />
      <path
         style="color:#000000;display:inline;overflow:visible;visibility:visible;opacity:0.2;fill:#ffffff;fill-opacity:1;fill-rule:nonzero;stroke:none;marker:none;enable-background:new"
         d="m 100,498 v 1 h 15 v -1 z m 16,0 v 1 h 7 v -1 z m -8,8 v 1 h 7 v -1 z m -8,4 v 1 h 7 v -1 z"
         transform="translate(0,-244)"
         id="path4162" />
      <path
         style="color:#000000;display:inline;overflow:visible;visibility:visible;opacity:0.2;fill:#ffffff;fill-opacity:1;fill-rule:nonzero;stroke:none;marker:none;enable-background:new"
         d="m 56,506 v 1 h 11 v -1 z m 12,0 v 1 h 5 v -1 z m -6,6 v 1 h 5 v -1 z m -6,4 v 1 h 5 v -1 z"
         transform="translate(0,-244)"
         id="path4164" />
      <path
         style="color:#000000;display:inline;overflow:visible;visibility:visible;opacity:0.2;fill:#ffffff;fill-opacity:1;fill-rule:nonzero;stroke:none;marker:none;enable-background:new"
         d="m 150,483 v 1 h 22 v -1 z m 24,0 v 1 h 10 v -1 z m -12,12 v 1 h 10 v -1 z m -12,8 v 1 h 10 v -1 z"
         transform="translate(0,-244)"
         id="path4166" />
      <path
         style="color:#000000;display:inline;overflow:visible;visibility:visible;opacity:0.2;fill:#ffffff;fill-opacity:1;fill-rule:nonzero;stroke:none;marker:none;enable-background:new"
         d="m 272,48 v 2 h 240 v -2 z m 256,0 v 2 H 640 V 48 Z M 400,176 v 2 h 112 v -2 z m -128,64 v 2 h 112 v -2 z"
         transform="translate(0,-244)"
         id="path4183" />
    </g>
  </g>
</svg>
